X:182
T:New Marrinet. (p)1665.PLFD.182
M:4/4
L:1/4
Q:1/2=100
S:Playford, Dancing Master,2nd Supp. to 3rd Ed.,1665
O:England
H:166
Z:Chris Partington
K:D
dgga|ba/g/aa|dgga|b/b/a/g/a2:|
|:g/a/bg/a/b|ba/g/a2|dde>f|
e/f/g/a/f>g|aeef|e2d2:|
